assets/features/channel/east-asia/JCB.svg

<svg width="80" height="80" viewBox="0 0 80 80" fill="none" xmlns="http://www.w3.org/2000/svg">
<rect x="0.5" y="0.5" width="79" height="79" rx="7.5" fill="white"/>
<rect x="0.5" y="0.5" width="79" height="79" rx="7.5" stroke="#EEEEEE"/>
<path d="M64 51.1082C64 55.2147 60.6553 58.5586 56.5477 58.5586H16V29.0505C16 24.944 19.3447 21.6001 23.4523 21.6001H64V51.1082Z" fill="white"/>
<path d="M50.7969 43.5405H53.8776C53.9656 43.5405 54.171 43.5112 54.259 43.5112C54.8458 43.3938 55.3446 42.8659 55.3446 42.1326C55.3446 41.4286 54.8458 40.9006 54.259 40.7539C54.171 40.7246 53.9949 40.7246 53.8776 40.7246H50.7969V43.5405Z" fill="url(#paint0_linear_2497_22792)"/>
<path d="M53.5254 24.0928C50.5915 24.0928 48.1856 26.4687 48.1856 29.4312V34.975H55.7259C55.902 34.975 56.1074 34.975 56.2541 35.0043C57.9558 35.0923 59.2174 35.9723 59.2174 37.4976C59.2174 38.7002 58.3665 39.7268 56.7822 39.9321V39.9908C58.5132 40.1081 59.8335 41.0761 59.8335 42.572C59.8335 44.1853 58.3665 45.2412 56.4301 45.2412H48.1562V56.0941H55.99C58.924 56.0941 61.3298 53.7182 61.3298 50.7557V24.0928H53.5254Z" fill="url(#paint1_linear_2497_22792)"/>
<path d="M54.9631 37.8497C54.9631 37.1457 54.4644 36.6764 53.8776 36.5884C53.8189 36.5884 53.6722 36.5591 53.5842 36.5591H50.7969V39.1403H53.5842C53.6722 39.1403 53.8482 39.1403 53.8776 39.111C54.4644 39.023 54.9631 38.5537 54.9631 37.8497Z" fill="url(#paint2_linear_2497_22792)"/>
<path d="M24.0098 24.0928C21.0758 24.0928 18.67 26.4687 18.67 29.4312V42.6014C20.1663 43.3347 21.7213 43.804 23.2763 43.804C25.1247 43.804 26.1223 42.6894 26.1223 41.1641V34.9457H30.6993V41.1347C30.6993 43.54 29.203 45.5052 24.1272 45.5052C21.0465 45.5052 18.6406 44.8306 18.6406 44.8306V56.0648H26.4744C29.4083 56.0648 31.8142 53.6889 31.8142 50.7264V24.0928H24.0098Z" fill="url(#paint3_linear_2497_22792)"/>
<path d="M38.7676 24.0928C35.8336 24.0928 33.4277 26.4687 33.4277 29.4312V36.4123C34.7774 35.2683 37.1246 34.535 40.9094 34.711C42.9338 34.799 45.105 35.3563 45.105 35.3563V37.6149C44.0194 37.0576 42.7285 36.5589 41.0561 36.4416C38.1808 36.2363 36.4497 37.6442 36.4497 40.1081C36.4497 42.6014 38.1808 44.0093 41.0561 43.7746C42.7285 43.6573 44.0194 43.1293 45.105 42.6014V44.8599C45.105 44.8599 42.9632 45.4172 40.9094 45.5052C37.1246 45.6812 34.7774 44.9479 33.4277 43.804V56.1235H41.2615C44.1955 56.1235 46.6013 53.7476 46.6013 50.785V24.0928H38.7676Z" fill="url(#paint4_linear_2497_22792)"/>
<defs>
<linearGradient id="paint0_linear_2497_22792" x1="48.1806" y1="42.1361" x2="61.3654" y2="42.1361" gradientUnits="userSpaceOnUse">
<stop stop-color="#007940"/>
<stop offset="0.229" stop-color="#00873F"/>
<stop offset="0.743" stop-color="#40A737"/>
<stop offset="1" stop-color="#5CB531"/>
</linearGradient>
<linearGradient id="paint1_linear_2497_22792" x1="48.1803" y1="40.0806" x2="61.3659" y2="40.0806" gradientUnits="userSpaceOnUse">
<stop stop-color="#007940"/>
<stop offset="0.229" stop-color="#00873F"/>
<stop offset="0.743" stop-color="#40A737"/>
<stop offset="1" stop-color="#5CB531"/>
</linearGradient>
<linearGradient id="paint2_linear_2497_22792" x1="48.1803" y1="37.8459" x2="61.3654" y2="37.8459" gradientUnits="userSpaceOnUse">
<stop stop-color="#007940"/>
<stop offset="0.229" stop-color="#00873F"/>
<stop offset="0.743" stop-color="#40A737"/>
<stop offset="1" stop-color="#5CB531"/>
</linearGradient>
<linearGradient id="paint3_linear_2497_22792" x1="18.6638" y1="40.0806" x2="32.0525" y2="40.0806" gradientUnits="userSpaceOnUse">
<stop stop-color="#1F286F"/>
<stop offset="0.475" stop-color="#004E94"/>
<stop offset="0.826" stop-color="#0066B1"/>
<stop offset="1" stop-color="#006FBC"/>
</linearGradient>
<linearGradient id="paint4_linear_2497_22792" x1="33.3517" y1="40.0806" x2="46.3555" y2="40.0806" gradientUnits="userSpaceOnUse">
<stop stop-color="#6C2C2F"/>
<stop offset="0.173" stop-color="#882730"/>
<stop offset="0.573" stop-color="#BE1833"/>
<stop offset="0.859" stop-color="#DC0436"/>
<stop offset="1" stop-color="#E60039"/>
</linearGradient>
</defs>
</svg>

<svg xmlns="http://www.w3.org/2000/svg" width="80" height="80" fill="none" viewBox="0 0 80 80"><rect width="79" height="79" x=".5" y=".5" fill="#fff" rx="7.5"/><rect width="79" height="79" x=".5" y=".5" stroke="#eee" rx="7.5"/><path fill="#fff" d="M64 51.108c0 4.107-3.345 7.45-7.452 7.45H16V29.052c0-4.107 3.345-7.45 7.452-7.45H64z"/><path fill="url(#a)" d="M50.797 43.54h3.08c.089 0 .294-.029.382-.029.587-.117 1.086-.645 1.086-1.378 0-.704-.5-1.232-1.086-1.38-.088-.028-.264-.028-.381-.028h-3.081z"/><path fill="url(#b)" d="M53.525 24.093a5.34 5.34 0 0 0-5.34 5.338v5.544h7.54c.177 0 .382 0 .53.03 1.7.087 2.962.967 2.962 2.493 0 1.202-.85 2.229-2.435 2.434v.059c1.731.117 3.052 1.085 3.052 2.581 0 1.613-1.468 2.67-3.404 2.67h-8.274v10.852h7.834a5.34 5.34 0 0 0 5.34-5.338V24.093z"/><path fill="url(#c)" d="M54.963 37.85c0-.704-.499-1.174-1.085-1.262-.06 0-.206-.029-.294-.029h-2.787v2.581h2.787c.088 0 .264 0 .294-.029.586-.088 1.085-.557 1.085-1.261"/><path fill="url(#d)" d="M24.01 24.093a5.34 5.34 0 0 0-5.34 5.338v13.17c1.496.734 3.051 1.203 4.606 1.203 1.849 0 2.846-1.115 2.846-2.64v-6.218H30.7v6.189c0 2.405-1.496 4.37-6.572 4.37-3.08 0-5.486-.674-5.486-.674v11.234h7.833a5.34 5.34 0 0 0 5.34-5.339V24.093z"/><path fill="url(#e)" d="M38.768 24.093a5.34 5.34 0 0 0-5.34 5.338v6.981c1.35-1.144 3.697-1.877 7.481-1.701 2.025.088 4.196.645 4.196.645v2.259c-1.086-.557-2.376-1.056-4.049-1.173-2.875-.206-4.606 1.202-4.606 3.666 0 2.493 1.73 3.901 4.606 3.667 1.672-.118 2.963-.646 4.049-1.174v2.259s-2.142.557-4.196.645c-3.784.176-6.132-.557-7.481-1.701v12.32h7.834a5.34 5.34 0 0 0 5.34-5.339V24.093z"/><defs><linearGradient id="a" x1="48.181" x2="61.365" y1="42.136" y2="42.136" gradientUnits="userSpaceOnUse"><stop stop-color="#007940"/><stop offset=".229" stop-color="#00873f"/><stop offset=".743" stop-color="#40a737"/><stop offset="1" stop-color="#5cb531"/></linearGradient><linearGradient id="b" x1="48.18" x2="61.366" y1="40.081" y2="40.081" gradientUnits="userSpaceOnUse"><stop stop-color="#007940"/><stop offset=".229" stop-color="#00873f"/><stop offset=".743" stop-color="#40a737"/><stop offset="1" stop-color="#5cb531"/></linearGradient><linearGradient id="c" x1="48.18" x2="61.365" y1="37.846" y2="37.846" gradientUnits="userSpaceOnUse"><stop stop-color="#007940"/><stop offset=".229" stop-color="#00873f"/><stop offset=".743" stop-color="#40a737"/><stop offset="1" stop-color="#5cb531"/></linearGradient><linearGradient id="d" x1="18.664" x2="32.053" y1="40.081" y2="40.081" gradientUnits="userSpaceOnUse"><stop stop-color="#1f286f"/><stop offset=".475" stop-color="#004e94"/><stop offset=".826" stop-color="#0066b1"/><stop offset="1" stop-color="#006fbc"/></linearGradient><linearGradient id="e" x1="33.352" x2="46.355" y1="40.081" y2="40.081" gradientUnits="userSpaceOnUse"><stop stop-color="#6c2c2f"/><stop offset=".173" stop-color="#882730"/><stop offset=".573" stop-color="#be1833"/><stop offset=".859" stop-color="#dc0436"/><stop offset="1" stop-color="#e60039"/></linearGradient></defs></svg>
